frontend/public/favicon.svg

<svg version="1.1" id="Layer_1" xmlns="http://www.w3.org/2000/svg" xmlns:xlink="http://www.w3.org/1999/xlink" x="0px" y="0px"
	 width="100%" viewBox="0 0 1024 1024" enable-background="new 0 0 1024 1024" xml:space="preserve">
<path fill="#000000" opacity="1.000000" stroke="none" 
	d="
M883.000000,1025.000000 
	C589.076904,1025.000000 295.153870,1025.000000 1.000000,1025.000000 
	C1.000000,784.973206 1.000000,544.946289 1.236388,304.586792 
	C5.042349,305.374329 7.169311,301.280243 10.580917,301.754089 
	C17.945768,302.777039 23.235113,298.980896 28.219408,294.264679 
	C33.505352,289.263000 39.816963,287.265015 47.065914,288.515015 
	C52.138920,289.389771 56.946529,288.517517 61.731243,286.690033 
	C77.332932,280.731201 87.869476,268.942413 96.047798,255.262039 
	C104.072258,241.839066 113.836388,229.974121 124.558952,218.839798 
	C137.341141,205.566727 148.425217,191.151199 157.456985,175.066895 
	C164.281387,162.913620 173.910355,152.881866 183.730316,143.167664 
	C197.515411,129.531021 212.997070,117.579727 224.287491,101.493660 
	C229.667328,93.828728 234.481644,85.977150 236.428040,76.637077 
	C237.684189,70.609314 239.184738,64.630104 240.676773,58.654362 
	C244.061279,45.098984 249.735184,33.362579 263.808075,27.581469 
	C268.246460,25.758200 274.148621,23.901331 274.206696,18.038055 
	C274.256531,13.004665 274.841187,8.146193 275.439056,3.216914 
	C275.599426,1.894599 273.898529,1.669941 273.000000,1.000000 
	C432.360199,1.000000 591.720398,1.000000 751.150513,1.124315 
	C746.410767,1.603368 741.600952,1.958105 736.791199,2.312843 
	C762.626038,6.124805 788.402771,4.677660 814.196228,2.724737 
	C810.182068,1.522971 805.941406,2.445055 802.000000,1.000000 
	C876.305969,1.000000 950.611877,1.000000 1025.000000,1.000000 
	C1025.000000,306.026855 1025.000000,611.053711 1024.705322,916.491455 
	C1016.517334,919.381836 1008.456116,921.434570 1001.908325,926.981445 
	C998.228027,930.099182 994.439514,933.106750 990.539307,935.943420 
	C983.031555,941.403992 974.321533,945.425659 968.873108,953.354431 
	C962.586182,962.503479 954.235718,969.177307 944.716064,974.597229 
	C937.470093,978.722656 930.622559,983.331482 924.421082,989.025696 
	C915.489807,997.226196 906.447754,1005.308899 894.602966,1009.512817 
	C891.003052,1010.790466 887.903625,1013.826294 884.953308,1016.477905 
	C882.517273,1018.667419 881.260925,1021.614746 883.000000,1025.000000 
M845.500122,16.352137 
	C734.849304,16.370071 624.198425,16.356102 513.547607,16.440479 
	C497.029114,16.453075 482.644257,22.133652 471.014221,34.082462 
	C461.605652,43.748943 453.883545,54.826508 445.412048,65.271240 
	C430.258118,83.954987 415.498962,102.958473 400.516968,121.782288 
	C381.494537,145.682602 362.406708,169.530869 343.361786,193.413345 
	C328.257477,212.354263 313.216248,231.345657 298.071503,250.254166 
	C283.957001,267.876404 269.683167,285.371094 255.589493,303.009857 
	C241.807968,320.257935 228.233414,337.671417 214.444336,354.913361 
	C197.948242,375.540131 181.271439,396.022339 164.763855,416.639984 
	C146.817581,439.054535 128.958755,461.539215 111.112617,484.033630 
	C109.155952,486.499939 107.347794,489.125763 105.792068,491.860413 
	C101.603661,499.222778 106.539917,506.352356 116.329628,506.529022 
	C126.121925,506.705719 135.956787,505.927032 145.711731,505.895233 
	C172.184082,505.808960 198.625610,504.543335 225.095551,504.401031 
	C238.372833,504.329620 251.680908,503.562775 264.984161,503.661896 
	C276.084656,503.744629 280.950562,510.854492 277.193604,521.305054 
	C276.632721,522.865356 275.957581,524.403381 275.163849,525.858154 
	C269.111694,536.950989 263.064636,548.047119 256.925751,559.092041 
	C242.466278,585.107056 227.925095,611.076660 213.476990,637.098022 
	C201.046951,659.484863 188.735062,681.937256 176.307312,704.325317 
	C161.799698,730.460144 147.193039,756.540039 132.685303,782.674805 
	C120.181580,805.199341 107.779327,827.780151 95.290489,850.313049 
	C80.385696,877.204834 65.436386,904.071838 50.506561,930.949707 
	C39.288784,951.144958 28.020292,971.312195 16.880346,991.550293 
	C12.793970,998.973999 8.981527,1006.549622 5.113493,1014.091614 
	C4.163008,1015.944885 3.779665,1018.017578 5.498660,1019.648193 
	C7.404668,1021.456421 9.136306,1020.070129 10.902242,1019.070312 
	C16.843027,1015.707153 22.258152,1011.580200 27.754930,1007.575195 
	C58.482552,985.186707 89.163177,962.733643 119.918358,940.383179 
	C162.781601,909.233582 205.739670,878.214417 248.575333,847.027100 
	C281.459137,823.085266 314.161133,798.893738 347.043823,774.950378 
	C389.878143,743.760864 432.822693,712.722839 475.697083,681.588257 
	C499.062042,664.621155 522.382324,647.592468 545.718506,630.585754 
	C565.727905,616.003479 585.718933,601.395935 605.740601,586.830383 
	C629.105408,569.832703 652.494385,552.868042 675.873535,535.889954 
	C697.094055,520.479431 718.321533,505.078644 739.533691,489.656830 
	C749.878296,482.136017 760.316833,474.735199 770.451965,466.940887 
	C773.581421,464.534210 777.800964,461.648224 776.132690,456.794373 
	C774.554260,452.202118 769.763367,451.677856 765.639954,451.500427 
	C748.378967,450.757568 731.108948,450.204651 713.845093,449.539886 
	C694.430298,448.792328 675.002686,448.145050 655.582458,447.609680 
	C641.626343,447.224976 627.676514,446.332977 613.706482,446.389679 
	C599.736328,446.446350 585.791321,445.413818 571.834595,445.036865 
	C564.982422,444.851837 557.890259,445.392151 551.047119,443.638062 
	C542.596558,441.471924 540.993286,435.969910 547.243530,429.668945 
	C552.862854,424.004120 558.598694,418.472290 564.533081,413.105316 
	C581.039368,398.177368 596.940918,382.582123 613.377625,367.574860 
	C618.786255,362.636536 623.955383,357.466797 629.328003,352.506165 
	C644.581116,338.422729 659.982361,324.499573 675.222046,310.401794 
	C687.302429,299.226593 699.155884,287.805969 711.243164,276.638275 
	C731.144958,258.250549 751.164124,239.989761 771.115112,221.655182 
	C784.325195,209.515442 797.543579,197.384293 810.685181,185.170609 
	C830.651428,166.614182 850.508423,147.940140 870.497986,129.408905 
	C887.187561,113.936981 904.178772,98.786476 920.704651,83.143166 
	C934.831543,69.770653 949.161133,56.625729 963.461670,43.444313 
	C968.103699,39.165516 972.560547,34.655045 976.793457,29.971554 
	C981.509155,24.753662 979.975708,19.737848 973.351501,17.325895 
	C970.771973,16.386684 968.152100,16.338430 965.484070,16.339163 
	C925.822754,16.350052 886.161499,16.350048 845.500122,16.352137 
M564.944336,629.500916 
	C564.566589,629.828186 564.211609,630.187134 563.807800,630.478333 
	C533.897949,652.045593 503.923492,673.524109 474.086792,695.192200 
	C440.219635,719.787537 406.505981,744.594116 372.668793,769.230774 
	C342.599121,791.124268 312.432953,812.885132 282.351837,834.763000 
	C274.836761,840.228699 274.631195,844.364380 281.308044,850.884766 
	C295.871460,865.106873 312.050385,877.226257 329.291809,888.011475 
	C351.314392,901.787354 374.195312,913.861328 398.237579,923.728943 
	C425.195801,934.793274 452.988312,942.966248 481.657990,948.200256 
	C500.762756,951.688110 519.991089,954.154846 539.407410,954.581238 
	C567.006165,955.187378 594.502258,954.304993 621.861572,949.762207 
	C646.824951,945.617249 671.253418,939.462280 695.083313,931.217529 
	C717.887878,923.327515 739.653687,912.885254 760.776245,901.158875 
	C791.441345,884.135010 819.227539,863.204285 844.711304,839.194580 
	C856.825562,827.781067 867.801941,815.283447 878.445557,802.487671 
	C899.584778,777.074036 917.215942,749.353088 931.576721,719.672668 
	C945.209229,691.497375 955.584290,662.066528 962.482117,631.450012 
	C967.594727,608.757690 971.361694,585.811890 972.353699,562.636353 
	C973.127258,544.562988 973.170044,526.398315 971.832703,508.242950 
	C970.318054,487.680328 967.274170,467.437805 962.844971,447.333588 
	C952.333679,399.623322 933.672791,355.317657 907.544678,314.113190 
	C885.140991,278.782227 857.424072,247.985199 826.646606,219.835068 
	C822.242493,215.806992 817.685852,211.928604 813.013000,208.216064 
	C808.022949,204.251465 803.502075,204.512512 798.626526,208.568756 
	C792.988770,213.259079 787.689575,218.304138 782.578491,223.559952 
	C777.053467,229.241455 776.850403,232.900681 782.573730,238.378769 
	C791.576538,246.995880 800.904175,255.273010 809.936951,263.859558 
	C822.960815,276.240112 835.135986,289.474609 846.405090,303.426208 
	C869.173096,331.613831 887.589417,362.515564 901.288574,396.097595 
	C909.704773,416.729095 916.265686,437.955170 921.009277,459.780548 
	C925.637695,481.075470 928.243286,502.610413 929.243530,524.295959 
	C930.162598,544.220459 928.971191,564.118530 926.522217,583.971497 
	C923.729431,606.610657 918.952698,628.771790 912.136780,650.489380 
	C904.199829,675.778931 893.613708,699.942627 880.451294,722.974609 
	C865.885376,748.462708 848.724792,772.060242 828.571289,793.385681 
	C818.410889,804.136902 807.758972,814.403931 796.371948,823.947571 
	C777.064941,840.129028 756.444885,854.352783 734.323059,866.264221 
	C700.171814,884.652771 664.089478,897.774841 625.813293,904.784607 
	C598.956177,909.703064 571.928650,912.244812 544.651123,912.390808 
	C543.458008,912.397156 542.152832,912.602600 540.736267,911.189270 
	C542.876099,910.500793 544.411438,909.957458 545.974670,909.511719 
	C558.418152,905.963745 570.999207,902.837769 583.286316,898.813660 
	C607.418030,890.910400 629.940369,879.490662 651.181580,865.655457 
	C675.849487,849.588379 697.355225,829.813843 716.265320,807.353699 
	C737.057495,782.658508 753.032776,755.067261 765.084900,725.022949 
	C779.311035,689.559204 785.331055,652.674866 786.639221,614.774109 
	C786.840698,608.937988 785.284424,603.257141 785.545837,597.387695 
	C785.923645,588.909485 784.520813,580.475525 783.256348,572.153503 
	C779.516663,547.540833 773.597839,523.388550 766.528564,499.518555 
	C764.024536,491.063660 758.361938,488.965179 751.345093,494.047577 
	C724.980591,513.143616 698.610046,532.231445 672.273682,551.366272 
	C636.666504,577.236877 601.088745,603.147888 564.944336,629.500916 
M628.273010,361.818787 
	C627.311523,362.466095 626.243042,362.998230 625.404236,363.777588 
	C605.561584,382.214722 585.720581,400.653778 565.948669,419.166595 
	C563.292603,421.653534 560.534058,424.103333 558.663574,427.340088 
	C556.294312,431.439819 557.138000,435.164246 561.228271,437.488983 
	C563.249268,438.637665 565.455566,439.484314 567.821472,439.589722 
	C583.573303,440.291779 599.325439,441.458130 615.079956,441.498932 
	C630.719360,441.539459 646.299805,443.326843 661.943481,442.650330 
	C662.769592,442.614563 663.603333,442.734802 664.432678,442.793610 
	C681.001343,443.969025 697.606628,444.658295 714.199219,444.440338 
	C723.810242,444.314148 727.796143,435.579437 722.228455,427.780579 
	C718.772156,422.939331 714.994019,418.227722 710.775757,414.047882 
	C692.719360,396.155792 673.823364,379.179626 653.978943,363.277710 
	C644.335083,355.549835 637.005127,355.012634 628.273010,361.818787 
M989.397156,69.873825 
	C991.075745,64.915459 989.598145,62.507313 984.635681,62.224232 
	C983.481140,62.158375 982.313538,62.342152 981.151123,62.391937 
	C965.414734,63.065948 953.242004,71.172615 942.239441,81.408203 
	C935.941956,87.266792 935.282410,93.669952 939.400635,101.303879 
	C942.605652,107.244919 944.516968,107.810379 950.520325,104.734383 
	C955.198425,102.337418 958.919922,98.777435 962.460083,95.011162 
	C965.894836,91.357132 969.431091,87.721222 973.797852,85.302269 
	C980.285400,81.708542 984.844788,76.342300 989.397156,69.873825 
z"/>
</svg>

<?xml version="1.0" encoding="UTF-8" standalone="no"?>
<svg
   version="1.1"
   id="Layer_1"
   x="0px"
   y="0px"
   width="100%"
   viewBox="0 0 1024 1024"
   enable-background="new 0 0 1024 1024"
   xml:space="preserve"
   sodipodi:docname="favicon.svg"
   inkscape:version="1.4.3 (0d15f75, 2025-12-25)"
   xmlns:inkscape="http://www.inkscape.org/namespaces/inkscape"
   xmlns:sodipodi="http://sodipodi.sourceforge.net/DTD/sodipodi-0.dtd"
   xmlns="http://www.w3.org/2000/svg"
   xmlns:svg="http://www.w3.org/2000/svg"><defs
   id="defs1" /><sodipodi:namedview
   id="namedview1"
   pagecolor="#505050"
   bordercolor="#ffffff"
   borderopacity="1"
   inkscape:showpageshadow="0"
   inkscape:pageopacity="0"
   inkscape:pagecheckerboard="1"
   inkscape:deskcolor="#505050"
   inkscape:zoom="0.59371524"
   inkscape:cx="453.92131"
   inkscape:cy="520.45152"
   inkscape:window-width="1512"
   inkscape:window-height="811"
   inkscape:window-x="0"
   inkscape:window-y="38"
   inkscape:window-maximized="0"
   inkscape:current-layer="Layer_1" />
<path
   fill="#000000"
   opacity="1"
   stroke="none"
   d="m 845.50012,16.352137 c -110.65082,0.01793 -221.30169,0.004 -331.95251,0.08834 -16.5185,0.0126 -30.90335,5.693173 -42.53339,17.641983 -9.40857,9.666481 -17.13067,20.744046 -25.60217,31.188778 -15.15393,18.683747 -29.91309,37.68723 -44.89508,56.51105 -19.02243,23.90031 -38.11026,47.74858 -57.15518,71.63105 -15.10431,18.94092 -30.14554,37.93232 -45.29029,56.84083 -14.1145,17.62223 -28.38833,35.11692 -42.48201,52.75569 -13.78152,17.24807 -27.35608,34.66156 -41.14515,51.9035 -16.4961,20.62677 -33.1729,41.10898 -49.68049,61.72662 -17.94627,22.41455 -35.8051,44.89924 -53.65123,67.39365 -1.95667,2.46631 -3.76483,5.09213 -5.32055,7.82678 -4.18841,7.36237 0.74785,14.49195 10.53756,14.66861 9.7923,0.1767 19.62716,-0.60199 29.3821,-0.63379 26.47235,-0.0863 52.91388,-1.35189 79.38382,-1.4942 13.27728,-0.0714 26.58536,-0.83826 39.88861,-0.73913 11.1005,0.0827 15.9664,7.19259 12.20944,17.64315 -0.56088,1.56031 -1.23602,3.09833 -2.02975,4.5531 -6.05216,11.09284 -12.09921,22.18897 -18.2381,33.23389 -14.45947,26.01502 -29.00066,51.98462 -43.44876,78.00598 -12.43004,22.38684 -24.74193,44.83924 -37.16968,67.2273 -14.50761,26.13482 -29.11427,52.21472 -43.62201,78.34948 -12.50372,22.52454 -24.90597,45.10535 -37.394811,67.63825 -14.904793,26.89178 -29.854103,53.75879 -44.783928,80.63666 -11.217777,20.19525 -22.486269,40.36248 -33.626215,60.60058 -4.086376,7.42371 -7.898819,14.99931 -11.766853,22.54131 -0.950485,1.8533 -1.333828,3.926 0.385167,5.5566 1.906008,1.8082 3.637646,0.4219 5.403582,-0.5779 5.940785,-3.3631 11.35591,-7.4901 16.852688,-11.4951 30.727622,-22.38849 61.408247,-44.84156 92.16343,-67.19202 42.86324,-31.1496 85.82131,-62.16876 128.65697,-93.35608 32.88381,-23.94183 65.5858,-48.13336 98.46849,-72.07672 42.83432,-31.18952 85.77887,-62.22754 128.65326,-93.36212 23.36496,-16.9671 46.68524,-33.99579 70.02143,-51.00251 20.00939,-14.58227 40.00042,-29.18982 60.02209,-43.75537 23.36481,-16.99768 46.75378,-33.96234 70.13293,-50.94043 21.22053,-15.41052 42.448,-30.81131 63.66016,-46.23312 10.34461,-7.52081 20.78314,-14.92163 30.91827,-22.71594 3.12946,-2.40668 7.349,-5.29267 5.68073,-10.14652 -1.57843,-4.59225 -6.36932,-5.11651 -10.49274,-5.29394 -17.26098,-0.74286 -34.531,-1.29578 -51.79486,-1.96054 -19.41479,-0.74756 -38.8424,-1.39484 -58.26263,-1.93021 -13.95612,-0.3847 -27.90595,-1.2767 -41.87598,-1.22 -13.97015,0.0567 -27.91516,-0.97586 -41.87188,-1.35282 -6.85218,-0.18502 -13.94434,0.35529 -20.78748,-1.3988 -8.45056,-2.16614 -10.05383,-7.66815 -3.80359,-13.96912 5.61932,-5.66482 11.35516,-11.19665 17.28955,-16.56362 16.50629,-14.92795 32.40784,-30.5232 48.84454,-45.53046 5.40863,-4.93832 10.57776,-10.10806 15.95038,-15.0687 15.25312,-14.08343 30.65436,-28.00659 45.89405,-42.10437 12.08038,-11.1752 23.93383,-22.59582 36.02111,-33.76351 19.9018,-18.38773 39.92096,-36.64852 59.87195,-54.9831 13.21008,-12.13974 26.42847,-24.27089 39.57007,-36.48457 19.96625,-18.55643 39.82324,-37.23047 59.81281,-55.76171 16.68957,-15.47192 33.68078,-30.622424 50.20666,-46.265734 14.12689,-13.372513 28.45648,-26.517437 42.75702,-39.698853 4.64203,-4.278797 9.09888,-8.789268 13.33179,-13.472759 4.71569,-5.217892 3.18225,-10.233706 -3.44196,-12.645659 -2.57953,-0.939211 -5.1994,-0.987465 -7.86743,-0.986732 -39.66132,0.01089 -79.32257,0.01089 -119.98395,0.01297 M 564.94434,629.50092 c -0.37775,0.32727 -0.73273,0.68621 -1.13654,0.97741 -29.90985,21.56726 -59.88431,43.04578 -89.72101,64.71387 -33.86716,24.59534 -67.58081,49.40192 -101.418,74.03857 -30.06967,21.8935 -60.23584,43.65436 -90.31695,65.53223 -7.51508,5.4657 -7.72065,9.60138 -1.0438,16.12177 14.56342,14.2221 30.74234,26.34149 47.98377,37.12671 22.02258,13.77587 44.9035,25.84985 68.94577,35.71746 26.95822,11.06433 54.75073,19.23731 83.42041,24.47132 19.10477,3.48785 38.3331,5.95459 57.74942,6.38098 27.59875,0.60614 55.09485,-0.27625 82.45416,-4.81903 24.96338,-4.14496 49.39185,-10.29993 73.22174,-18.54468 22.80457,-7.89002 44.57038,-18.33228 65.69294,-30.05866 30.66509,-17.02386 58.45129,-37.95458 83.93505,-61.96429 12.11426,-11.41351 23.09064,-23.91113 33.73426,-36.70691 21.13922,-25.41363 38.77038,-53.13458 53.13116,-82.815 13.63251,-28.17529 24.00757,-57.60614 30.9054,-88.22266 5.11261,-22.69232 8.87957,-45.63812 9.87158,-68.81366 0.77356,-18.07336 0.81634,-36.23803 -0.521,-54.3934 -1.51465,-20.56262 -4.55853,-40.80514 -8.98773,-60.90936 -10.51129,-47.71027 -29.17218,-92.01593 -55.30029,-133.2204 -22.40369,-35.33096 -50.12061,-66.12799 -80.89807,-94.27812 -4.40412,-4.02808 -8.96076,-7.90647 -13.63361,-11.61901 -4.99005,-3.9646 -9.51093,-3.70355 -14.38647,0.3527 -5.63776,4.69032 -10.93696,9.73538 -16.04804,14.99119 -5.52502,5.6815 -5.72809,9.34073 -0.005,14.81882 9.00281,8.61711 18.33044,16.89424 27.36322,25.48079 13.02387,12.38055 25.19904,25.61505 36.46814,39.56665 22.76801,28.18762 41.18433,59.08935 54.88348,92.67138 8.4162,20.6315 14.97712,41.85758 19.72071,63.68296 4.62841,21.29492 7.23401,42.82986 8.23425,64.51541 0.91907,19.9245 -0.27234,39.82257 -2.72131,59.67554 -2.79279,22.63916 -7.56952,44.80029 -14.38544,66.51788 -7.93695,25.28955 -18.52307,49.45325 -31.68549,72.48523 -14.56591,25.4881 -31.7265,49.08563 -51.88,70.41107 -10.1604,10.75122 -20.81232,21.01825 -32.19934,30.56189 -19.30701,16.18146 -39.92707,30.40521 -62.04889,42.31665 -34.15125,18.38855 -70.23358,31.51062 -108.50977,38.52039 -26.85711,4.91845 -53.88464,7.4602 -81.16217,7.6062 -1.19311,0.006 -2.49829,0.21179 -3.91485,-1.20154 2.13983,-0.68848 3.67517,-1.23181 5.2384,-1.67755 12.44348,-3.54797 25.02454,-6.67395 37.31165,-10.69806 24.13171,-7.90326 46.65405,-19.323 67.89526,-33.1582 24.66791,-16.06708 46.17365,-35.84162 65.08374,-58.30176 20.79218,-24.69519 36.76746,-52.28644 48.81958,-82.33075 14.22613,-35.46375 20.24615,-72.34808 21.55432,-110.24884 0.20148,-5.83612 -1.3548,-11.51697 -1.09338,-17.38642 0.3778,-8.4782 -1.02503,-16.91217 -2.28949,-25.23419 -3.73969,-24.61267 -9.65851,-48.76495 -16.72779,-72.63495 -2.50402,-8.45489 -8.16662,-10.55337 -15.18347,-5.47097 -26.3645,19.09604 -52.73504,38.18386 -79.07141,57.31869 -35.60718,25.87061 -71.18493,51.78162 -107.32934,78.13465 m 63.32867,-267.68213 c -0.96149,0.6473 -2.02997,1.17944 -2.86877,1.9588 -19.84266,18.43713 -39.68366,36.87619 -59.45557,55.389 -2.65607,2.48694 -5.41461,4.93674 -7.2851,8.1735 -2.36926,4.09973 -1.52557,7.82416 2.5647,10.14889 2.021,1.14869 4.2273,1.99533 6.5932,2.10074 15.75183,0.70206 31.50397,1.86841 47.25849,1.90921 15.6394,0.0405 31.21984,1.82791 46.86352,1.1514 0.82611,-0.0358 1.65985,0.0845 2.4892,0.14328 16.56866,1.17541 33.17395,1.86468 49.76654,1.64673 9.61102,-0.12619 13.59692,-8.8609 8.02924,-16.65976 -3.4563,-4.84125 -7.23444,-9.55286 -11.4527,-13.7327 -18.0564,-17.89209 -36.9524,-34.86825 -56.79682,-50.77017 -9.64386,-7.72788 -16.97381,-8.26508 -25.70593,-1.45892"
   id="path1"
   sodipodi:nodetypes="csssssssssssssssscssssssssscsssssssssssssssssssssssssssssssccccsssssssssssssssssssssssssssssssssssscssscsscsssscccssscsscssssc" />
</svg>
